icons/lines/chainlink--link-.svg

<svg xmlns="http://www.w3.org/2000/svg" width="24" height="24" viewBox="0 0 24 24" fill="none" stroke="currentColor" stroke-width="2" stroke-linecap="round" stroke-linejoin="round">
  <path d="M3 15.8c0 .7.4 1.4 1 1.7l7 3.9a2.12 2.12 0 0 0 1.9 0l7-3.9c.6-.4 1-1 1-1.7V8.2c0-.7-.4-1.4-1-1.7l-7-3.9a2.12 2.12 0 0 0-1.9 0L4 6.4c-.6.4-1 1.1-1 1.8z" />
</svg>

<svg xmlns="http://www.w3.org/2000/svg" width="24" height="24" viewBox="0 0 24 24" fill="none" stroke="currentColor" stroke-width="2" stroke-linecap="round" stroke-linejoin="round" >
  <path d="M3 8.2V15.8C3 16.5 3.4 17.2 4 17.5L11 21.4C11.6 21.7 12.3 21.7 12.9 21.4L19.9 17.5C20.5 17.1 20.9 16.5 20.9 15.8V8.2C20.9 7.5 20.5 6.8 19.9 6.5L12.9 2.6C12.3 2.3 11.6 2.3 11 2.6L4 6.4C3.4 6.8 3 7.5 3 8.2Z" stroke-miterlimit="10"/>
  </svg>
